!!!COM: Kittel, Johann Christian
!!!CDT: 1732/02/18-1809/04/17
!!!OPR: 24 Choräle mit acht verschiedenen Bässen
!!!ONM: 7
!!!OTL@@DE: Nun lasst uns Gott den Herren
**kern	**fb	**kern	**fb	**kern	**fb	**kern	**fb	**kern	**fb	**kern
*	*slash	*	*slash	*	*slash	*	*slash	*	*slash	*
*	*above	*	*above	*	*above	*	*above	*	*above	*
*I"5	*	*I"4	*	*I"3	*	*I"2	*	*I"1	*	*I"c.f.
*I'5	*	*I'4	*	*I'3	*	*I'2	*	*I'1	*	*I'c.f.
*clefF4	*	*clefF4	*	*clefF4	*	*clefF4	*	*clefF4	*	*clefG2
*k[f#c#g#]	*	*k[f#c#g#]	*	*k[f#c#g#]	*	*k[f#c#g#]	*	*k[f#c#g#]	*	*k[f#c#g#]
*M4/4	*	*M4/4	*	*M4/4	*	*M4/4	*	*M4/4	*	*M4/4
*met(c)	*	*met(c)	*	*met(c)	*	*met(c)	*	*met(c)	*	*met(c)
*MM180	*	*MM180	*	*MM180	*	*MM180	*	*MM180	*	*MM180
=1	=1	=1	=1	=1	=1	=1	=1	=1	=1	=1
2r	.	2r	.	2r	.	2r	.	2r	.	2r
[1AA	8_ 3 1	2A	.	2A	.	2AA	.	2A	.	2a
=2.	=2.	=2.	=2.	=2.	=2.	=2.	=2.	=2.	=2.	=2.
.	x_ 4 2	2D#	6 5	2D	6 5	2BB	7	2F	.	2a
[2AA]	7 5 3	2E#	6 5	2E	.	2C#	6 5	2C	.	2g#
=3.	=3.	=3.	=3.	=3.	=3.	=3.	=3.	=3.	=3.	=3.
!	!	!	!	!	!	!	!	!	!	!LO:N:vis=2
4AA]	6 4	2.F#	.	2BB	5	2.D	.	2D	.	4f#
4BB	6 4 3	.	.	.	6	.	.	.	.	4g#N
(4C#	6	.	x_	2C#	6	.	.	2AA	.	2a
4AA)	.	4EnX	X	.	.	4C#	6	.	.	.
=4.	=4.	=4.	=4.	=4.	=4.	=4.	=4.	=4.	=4.	=4.
4D	6	4DnX	6 5	(2D	6 5	2BB	.	(2D	6	1b
4BB	7	4BB	.	.	.	.	.	.	5	.
2E	8	2E	8	2E)	8	2E	8	2E)	8	.
.	7	.	7	.	7	.	7	.	7	.
=5.	=5.	=5.	=5.	=5.	=5.	=5.	=5.	=5.	=5.	=5.
1AA;	8 3	1AA;	8 3	1AA;	8 3	1AA;	8 3	1AA;	8 3	1a;
=6	=6	=6	=6	=6	=6	=6	=6	=6	=6	=6
2r	.	2r	.	2r	.	2r	.	2r	.	2r
2C#	6	2F#	.	2A	.	2C#	6	2F	.	2a
=7.	=7.	=7.	=7.	=7.	=7.	=7.	=7.	=7.	=7.	=7.
2D	8	2E	4 2	2F#	.	2D	8	2C	6	2a
.	7	.	.	.	.	.	7	.	.	.
!	!	!	!	!	!	!	!	!	!	!LO:N:vis=2
2D#	6	2D#	6	2D#	6	2D#	6	2D#	6	4b
.	5	.	5	.	5	.	5	.	5	4aN
=8.	=8.	=8.	=8.	=8.	=8.	=8.	=8.	=8.	=8.	=8.
!	!	!	!	!	!	!	!	!	!	!LO:N:vis=2
2E	.	2DnX	4 2	2E	.	2.E	.	2E	.	4g#
.	.	.	5 X	.	.	.	.	.	.	4aN
2E#	n7	2C#	7 #	2E#	7n	.	.	2G	6	2b
.	.	.	.	.	.	4DnX	4 2	.	.	.
=9.	=9.	=9.	=9.	=9.	=9.	=9.	=9.	=9.	=9.	=9.
1F#	9	2F#	8 3	2F#	9	2C#	6	2F	7	1a
.	.	.	n7 2	.	.	.	.	.	.	.
.	8	2BB	7 #	2BB	7 #	2BB	7 #	2BB	7 #	.
=10.	=10.	=10.	=10.	=10.	=10.	=10.	=10.	=10.	=10.	=10.
1C#;	5_ 4	1E;	.	1En;	.	1E;	.	1E;	.	1g#;
.	X #	.	.	.	.	.	.	.	.	.
=11	=11	=11	=11	=11	=11	=11	=11	=11	=11	=11
2r	.	2r	.	2r	.	2r	.	2r	.	2r
2C#	#	2FnX	4 #2|	2E#	6	2D	4 2	2E	.	2g#
=12.	=12.	=12.	=12.	=12.	=12.	=12.	=12.	=12.	=12.	=12.
2F#	.	2.E	6_ 4_ X	2F#	.	2C#	6	2C	6	2a
2F#	6	.	x_ x_ 3n	2C#	6	1D	5 3	(4D	5 3	2a
.	5	8FnXL	.	.	.	.	.	4C)	.	.
.	.	8EJ	X X	.	.	.	.	.	.	.
=13.	=13.	=13.	=13.	=13.	=13.	=13.	=13.	=13.	=13.	=13.
2G#	7	2D	6 #	2BB	6	.	6 4	2BB	6	2b
.	6	.	6 4	.	.	.	.	.	.	.
2A	9	4C#	6	2AA	.	(4C#	6	2AA	.	2cc#
.	8	4AA	.	.	.	4D)	.	.	.	.
=14.	=14.	=14.	=14.	=14.	=14.	=14.	=14.	=14.	=14.	=14.
!LO:N:vis=2	!	!	!	!	!	!	!	!	!	!
4EL	5 3	4E	4	2E	5_ 3 8	4E	5 3	2E	5 4	2b
.	.	.	3	.	.	.	.	.	.	.
!LO:N:vis=2	!	!	!	!	!	!	!	!	!	!
4D#J	6 5	4BB	7_ 4	.	x_ 4 #7|	4FnX	#6| 4 3	.	.	.
.	.	.	X #	.	.	.	.	.	.	.
2E;	5_ 4	2EE;	.	2E;	5 3	2E;	5_ 4	2EE;	X 3	2b;
.	X 3	.	.	.	.	.	X 3	.	.	.
=15	=15	=15	=15	=15	=15	=15	=15	=15	=15	=15
2r	.	2r	.	2r	.	2r	.	2r	.	2r
2.AA	8	2AA#	n7 5	2A	.	2AA	.	2A	.	2cc#
.	n7	.	.	.	.	.	.	.	.	.
=16.	=16.	=16.	=16.	=16.	=16.	=16.	=16.	=16.	=16.	=16.
.	6 4	2BB	5	2G#	6 5	2BB	7	2F	6	2dd
4BB	6	.	#6|	.	.	.	.	.	.	.
4C#	6_	(4C#	6	2A	9	2C#	6	(4C	6	2cc#
4D	X	4D)	.	.	8	.	.	4D)	.	.
=17.	=17.	=17.	=17.	=17.	=17.	=17.	=17.	=17.	=17.	=17.
2.E	5_ 4	2E	4	2D	6 5	2D	6 5	2E	.	2b
.	X 3	.	#	.	4 2	.	.	.	.	.
.	6_ 4_	(4C#	6	(4C#	6	(4C#	6	2A	.	2cc#
4D#	X X	4AA)	.	4AA)	.	4D)	.	.	.	.
=18.	=18.	=18.	=18.	=18.	=18.	=18.	=18.	=18.	=18.	=18.
2E	5_ 4 8_	4.D	6	1E	5_ 4 8_	1E	5_ 4 8_	2D	6 5	1b
.	x_ 3 x_	8D#	6 5	.	.	.	.	.	.	.
2EE	X X 7	4E	5_ 4 8_	.	x_ 3_ x_	.	x_ 3 x_	2E	8	.
.	.	4EE	x_ 3 x_	.	X X 7	.	X X 7	.	7	.
.	.	.	X x_ 7	.	.	.	.	.	.	.
=19.	=19.	=19.	=19.	=19.	=19.	=19.	=19.	=19.	=19.	=19.
1AA;	8 3	1AA;	X 8 3	1AA;	8 3	1AA;	8 3	1AA;	8 3	1a;
==	==	==	==	==	==	==	==	==	==	==
*-	*-	*-	*-	*-	*-	*-	*-	*-	*-	*-
!!!RDF**kern: N = cue size
!!!AGN: chorale
!!!EED: Wolfgang Drescher
!!!END: 2023/05/11
!!!ENC: Wolfgang Drescher
!!!END: 2023/05/11
!!!title: @{ONM}. @{OTL@@DE}
